X: 1610
T: McDermott's Hornpipe
R:hornpipe
N:"Collected by Cronin"
B:O'Neill's 1610
Z:Transcribed by Michael Hogan
M:2/4
L:1/16
K:D
D2 | d>f (3edc d2B2 | (3ABA G>A FGEF | D>d (3ddd c>e (3eee | d>fe>d cABc |
d>f (3edc d2B2 | (3ABA G>A FGEF | DFAF GABd | c>e (3ABc d2 :|
|: (de) | f2fd fgaf | g2gf gbag | f2fd fgab | agfe dcBA |
f2fd fgaf | g2gf gbag | (3fgf d>f (3efe c>e | dfed cABc :||


